svg/24/text-size-set.svg

<svg width="24" height="24" viewBox="0 0 24 24" fill="currentColor" xmlns="http://www.w3.org/2000/svg"><path fill-rule="evenodd" clip-rule="evenodd" d="M15.4998 4C15.1923 4 14.916 4.18769 14.8027 4.47353L9.7499 17.2153L6.94714 10.1474C6.83379 9.8616 6.55745 9.67391 6.24996 9.67391C5.94246 9.67391 5.66612 9.8616 5.55277 10.1474L2.05277 18.9735C1.90008 19.3586 2.08844 19.7945 2.47349 19.9472C2.85853 20.0999 3.29445 19.9115 3.44714 19.5265L4.25074 17.5H8.24917L9.05277 19.5265C9.20546 19.9115 9.64138 20.0999 10.0264 19.9472C10.2309 19.8661 10.3799 19.7051 10.4518 19.5144L11.0246 18.0699C11.0083 17.8821 11 17.692 11 17.5C11 15.571 11.8403 13.8383 13.1747 12.6479L15.4998 6.78458L17.1746 11.008C17.2824 11.0027 17.3909 11 17.5 11C17.9192 11 18.3291 11.0397 18.7263 11.1155C18.7643 11.1228 18.8022 11.1303 18.8399 11.1383L16.197 4.47353C16.0837 4.18769 15.8073 4 15.4998 4ZM6.24996 12.4585L7.65435 16H4.84557L6.24996 12.4585Z"/><path fill-rule="evenodd" clip-rule="evenodd" d="M23 17.5C23 20.5376 20.5376 23 17.5 23C14.4624 23 12 20.5376 12 17.5C12 14.4624 14.4624 12 17.5 12C20.5376 12 23 14.4624 23 17.5ZM19.5001 14.9999C19.7762 14.9999 20.0001 15.2238 20.0001 15.4999V18.3284C20.0001 18.6045 19.7762 18.8284 19.5001 18.8284C19.2239 18.8284 19.0001 18.6045 19.0001 18.3284V16.707L15.8535 19.8536C15.6582 20.0489 15.3416 20.0489 15.1464 19.8536C14.9511 19.6584 14.9511 19.3418 15.1464 19.1465L18.293 15.9999H16.6716C16.3955 15.9999 16.1716 15.7761 16.1716 15.4999C16.1716 15.2238 16.3955 14.9999 16.6716 14.9999H19.5001Z"/></svg>

<svg xmlns="http://www.w3.org/2000/svg" width="24" height="24" fill="currentColor" viewBox="0 0 24 24">
  <path fill-rule="evenodd" d="M15.5 4a.75.75 0 0 0-.697.474L9.75 17.215l-2.803-7.068a.75.75 0 0 0-1.394 0l-3.5 8.827a.75.75 0 0 0 1.394.552l.804-2.026h3.998l.804 2.026a.75.75 0 0 0 1.399-.012l.573-1.444a6.484 6.484 0 0 1 2.15-5.422L15.5 6.785l1.675 4.223a6.626 6.626 0 0 1 1.665.13l-2.643-6.664A.75.75 0 0 0 15.5 4Zm-9.25 8.459L7.654 16H4.846l1.404-3.541Z" clip-rule="evenodd"/>
  <path fill-rule="evenodd" d="M23 17.5a5.5 5.5 0 1 1-11 0 5.5 5.5 0 0 1 11 0ZM19.5 15a.5.5 0 0 1 .5.5v2.828a.5.5 0 0 1-1 0v-1.621l-3.146 3.147a.5.5 0 1 1-.708-.707L18.293 16h-1.621a.5.5 0 1 1 0-1H19.5Z" clip-rule="evenodd"/>
</svg>
